X: 1
T: Norah Creeney
M: 12/8
L: 1/8
R: slide
K: Gmaj
|:G2G G2A B2G d2B|G2G G2B A2B cBA|
 G2G G2A B2G d2B|A2e e^de A2B cBA:|
|:d2d d2c B2G d2B|d2d d2B A2B cBA|
 d2d d2c B2G d2B |A2e e^de A2B cBA:|
